src/img/projects/android.svg

<?xml version="1.0" encoding="UTF-8"?>
<svg width="90px" height="90px" viewBox="0 0 90 90" version="1.1" xmlns="http://www.w3.org/2000/svg" xmlns:xlink="http://www.w3.org/1999/xlink">
    <!-- Generator: Sketch 41.2 (35397) - http://www.bohemiancoding.com/sketch -->
    <title>community/card/logo/android</title>
    <desc>Created with Sketch.</desc>
    <defs></defs>
    <g id="Symbols" stroke="none" stroke-width="1" fill="none" fill-rule="evenodd">
        <g id="community/card/logo/android" fill="#2EDE98">
            <path d="M25.2417204,35.4420332 C23.41054,35.4411537 21.9264613,36.9358644 21.9260238,38.7747529 L21.9283572,52.7313961 C21.9287947,54.5765877 23.4156444,56.0657283 25.2444914,56.0674873 C27.0772761,56.0652885 28.5616464,54.5755616 28.5597505,52.7315427 L28.5598963,38.7729939 C28.5591671,36.9345451 27.0730467,35.4408605 25.2417204,35.4420332 Z M51.9822632,22.9090077 L54.2966151,18.6608748 C54.4201425,18.4389476 54.3393465,18.1545758 54.1162097,18.0315923 C53.8897185,17.9091952 53.6104329,17.9927477 53.4912807,18.2158476 L51.1525734,22.5064897 C49.1857608,21.6291882 46.9838524,21.1350556 44.6559373,21.1375476 C42.3328349,21.1354954 40.1345725,21.6269895 38.1734477,22.5019457 L35.8334278,18.2208315 C35.7126714,17.9949465 35.4306148,17.9124201 35.2105406,18.0367228 C34.9855079,18.1573609 34.9031077,18.4411463 35.0278018,18.6626338 L37.3434662,22.9071021 C32.7938083,25.2659218 29.7202079,29.7565037 29.7225413,34.9121343 L59.5923959,34.909056 C59.5931251,29.7541583 56.5249207,25.2729578 51.9822632,22.9090077 Z M37.8622229,29.4733046 C37.1744364,29.4716922 36.614115,28.9096915 36.6138234,28.2154726 C36.6142609,27.5238922 37.1741447,26.9554419 37.8633896,26.9554419 C38.555843,26.9548555 39.1161644,27.5238922 39.1170394,28.2151794 C39.1173311,28.9089586 38.555843,29.4728648 37.8622229,29.4733046 Z M51.4629232,29.4708127 C50.7725116,29.4715456 50.2092734,28.9096915 50.210586,28.2123943 C50.210586,27.5224264 50.7716365,26.9535363 51.4635066,26.951191 C52.1502721,26.9530965 52.713802,27.5221332 52.7132186,28.2131273 C52.7136562,28.9079325 52.1533348,29.4709592 51.4629232,29.4708127 Z M29.8498606,57.6985205 C29.8481105,59.6678682 31.4299027,61.2578581 33.3875273,61.2571252 L35.7969676,61.2572718 L35.7995927,68.6419959 C35.799301,70.480298 37.2852756,71.9748621 39.1131017,71.9751553 C40.9454489,71.9751553 42.4298192,70.4791253 42.428215,68.6395039 L42.4285067,61.2563923 L46.905244,61.2556594 L46.9049523,68.6399437 C46.9065566,70.478539 48.394573,71.974569 50.2219616,71.9716373 C52.054017,71.97281 53.5394083,70.47678 53.5391166,68.637012 L53.5370748,61.2546333 L55.9551197,61.2539004 C57.9061815,61.2546333 59.4933698,59.6609788 59.493224,57.6957354 L59.4895779,36.0660386 L29.8446103,36.0713156 L29.8498606,57.6985205 Z M64.0851758,35.4376357 C62.254287,35.4361698 60.7700625,36.9305874 60.7705,38.7713815 L60.7716667,52.7280247 C60.7725418,54.570871 62.2558913,56.0617705 64.088676,56.0605979 C65.9195647,56.0603047 67.4020391,54.5705778 67.4034975,52.7268521 L67.3998515,38.770502 C67.3995598,36.9292681 65.916502,35.4371959 64.0851758,35.4376357 Z" id="android"></path>
        </g>
    </g>
</svg>

<svg width="90" height="90" viewBox="0 0 90 90" xmlns="http://www.w3.org/2000/svg"><title>community/card/logo/android</title><path d="M25.242 35.442c-1.831 0-3.316 1.494-3.316 3.333l.002 13.956a3.327 3.327 0 0 0 3.316 3.336 3.324 3.324 0 0 0 3.316-3.335V38.773a3.326 3.326 0 0 0-3.318-3.331zm26.74-12.533l2.315-4.248a.459.459 0 1 0-.805-.445l-2.34 4.29a15.879 15.879 0 0 0-6.496-1.368 15.852 15.852 0 0 0-6.483 1.364l-2.34-4.281a.455.455 0 0 0-.622-.184.458.458 0 0 0-.183.626l2.315 4.244c-4.55 2.359-7.623 6.85-7.62 12.005l29.87-.003c0-5.155-3.068-9.636-7.61-12zm-14.12 6.564a1.256 1.256 0 0 1-1.248-1.258c0-.691.56-1.26 1.25-1.26a1.26 1.26 0 0 1-.002 2.518zm13.6-.002c-.69 0-1.253-.561-1.251-1.259 0-.69.56-1.258 1.253-1.26.686.001 1.25.57 1.25 1.261 0 .695-.56 1.258-1.251 1.258zM29.85 57.699a3.542 3.542 0 0 0 3.538 3.558h2.409l.003 7.385c0 1.838 1.485 3.333 3.313 3.333a3.325 3.325 0 0 0 3.315-3.335v-7.384h4.477v7.384c.002 1.839 1.49 3.335 3.317 3.332 1.832 0 3.317-1.495 3.317-3.335l-.002-7.382 2.418-.001c1.951 0 3.538-1.593 3.538-3.558l-.003-21.63-29.645.005.005 21.628zm34.235-22.261c-1.83-.002-3.315 1.493-3.314 3.333v13.957a3.323 3.323 0 0 0 3.318 3.333c1.83 0 3.313-1.49 3.314-3.334L67.4 38.77a3.323 3.323 0 0 0-3.315-3.333z" fill="#2EDE98" fill-rule="evenodd"/></svg>
